images/5461299.svg

<?xml version="1.0" encoding="UTF-8"?>
<svg xmlns="http://www.w3.org/2000/svg" xmlns:xlink="http://www.w3.org/1999/xlink" width="300pt" height="300pt" viewBox="0 0 300 300" version="1.1">
<defs>
<g>
<symbol overflow="visible" id="glyph0-0">
<path style="stroke:none;" d="M 0.453125 1.59375 L 0.453125 -6.34375 L 4.953125 -6.34375 L 4.953125 1.59375 Z M 0.953125 1.09375 L 4.453125 1.09375 L 4.453125 -5.84375 L 0.953125 -5.84375 Z M 0.953125 1.09375 "/>
</symbol>
<symbol overflow="visible" id="glyph0-1">
<path style="stroke:none;" d="M 3.546875 -5.953125 C 2.898438 -5.953125 2.382812 -5.710938 2 -5.234375 C 1.625 -4.753906 1.4375 -4.101562 1.4375 -3.28125 C 1.4375 -2.445312 1.625 -1.789062 2 -1.3125 C 2.382812 -0.832031 2.898438 -0.59375 3.546875 -0.59375 C 4.191406 -0.59375 4.703125 -0.832031 5.078125 -1.3125 C 5.453125 -1.789062 5.640625 -2.445312 5.640625 -3.28125 C 5.640625 -4.101562 5.453125 -4.753906 5.078125 -5.234375 C 4.703125 -5.710938 4.191406 -5.953125 3.546875 -5.953125 Z M 3.546875 -6.6875 C 4.460938 -6.6875 5.195312 -6.375 5.75 -5.75 C 6.300781 -5.132812 6.578125 -4.3125 6.578125 -3.28125 C 6.578125 -2.238281 6.300781 -1.410156 5.75 -0.796875 C 5.195312 -0.179688 4.460938 0.125 3.546875 0.125 C 2.617188 0.125 1.878906 -0.179688 1.328125 -0.796875 C 0.773438 -1.410156 0.5 -2.238281 0.5 -3.28125 C 0.5 -4.3125 0.773438 -5.132812 1.328125 -5.75 C 1.878906 -6.375 2.617188 -6.6875 3.546875 -6.6875 Z M 3.546875 -6.6875 "/>
</symbol>
<symbol overflow="visible" id="glyph0-2">
<path style="stroke:none;" d="M 0.890625 -6.5625 L 2.078125 -6.5625 L 4.984375 -1.078125 L 4.984375 -6.5625 L 5.84375 -6.5625 L 5.84375 0 L 4.65625 0 L 1.75 -5.484375 L 1.75 0 L 0.890625 0 Z M 0.890625 -6.5625 "/>
</symbol>
<symbol overflow="visible" id="glyph0-3">
<path style="stroke:none;" d="M 0.890625 -6.5625 L 1.765625 -6.5625 L 1.765625 -3.875 L 5 -3.875 L 5 -6.5625 L 5.890625 -6.5625 L 5.890625 0 L 5 0 L 5 -3.125 L 1.765625 -3.125 L 1.765625 0 L 0.890625 0 Z M 0.890625 -6.5625 "/>
</symbol>
<symbol overflow="visible" id="glyph0-4">
<path style="stroke:none;" d="M 1.765625 -5.828125 L 1.765625 -3.359375 L 2.890625 -3.359375 C 3.296875 -3.359375 3.613281 -3.46875 3.84375 -3.6875 C 4.070312 -3.90625 4.1875 -4.207031 4.1875 -4.59375 C 4.1875 -4.988281 4.070312 -5.289062 3.84375 -5.5 C 3.613281 -5.71875 3.296875 -5.828125 2.890625 -5.828125 Z M 0.890625 -6.5625 L 2.890625 -6.5625 C 3.617188 -6.5625 4.171875 -6.394531 4.546875 -6.0625 C 4.929688 -5.726562 5.125 -5.238281 5.125 -4.59375 C 5.125 -3.945312 4.929688 -3.457031 4.546875 -3.125 C 4.171875 -2.800781 3.617188 -2.640625 2.890625 -2.640625 L 1.765625 -2.640625 L 1.765625 0 L 0.890625 0 Z M 0.890625 -6.5625 "/>
</symbol>
</g>
</defs>
<g id="surface40237">
<rect x="0" y="0" width="300" height="300" style="fill:rgb(100%,100%,100%);fill-opacity:1;stroke:none;"/>
<path style="fill:none;stroke-width:1.2;stroke-linecap:butt;stroke-linejoin:miter;stroke:rgb(0%,0%,0%);stroke-opacity:1;stroke-miterlimit:10;" d="M 35.25 189.355469 L 59.765625 195.148438 "/>
<path style="fill:none;stroke-width:1.2;stroke-linecap:butt;stroke-linejoin:miter;stroke:rgb(0%,0%,0%);stroke-opacity:1;stroke-miterlimit:10;" d="M 59.765625 195.148438 L 77.039062 176.8125 "/>
<path style="fill:none;stroke-width:1.2;stroke-linecap:butt;stroke-linejoin:miter;stroke:rgb(0%,0%,0%);stroke-opacity:1;stroke-miterlimit:10;" d="M 77.039062 176.8125 L 101.554688 182.605469 "/>
<path style="fill:none;stroke-width:1.2;stroke-linecap:butt;stroke-linejoin:miter;stroke:rgb(0%,0%,0%);stroke-opacity:1;stroke-miterlimit:10;" d="M 101.554688 182.605469 L 118.828125 164.273438 "/>
<path style="fill:none;stroke-width:1.2;stroke-linecap:butt;stroke-linejoin:miter;stroke:rgb(0%,0%,0%);stroke-opacity:1;stroke-miterlimit:10;" d="M 118.828125 164.273438 L 143.339844 170.066406 "/>
<path style="fill:none;stroke-width:1.2;stroke-linecap:butt;stroke-linejoin:miter;stroke:rgb(0%,0%,0%);stroke-opacity:1;stroke-miterlimit:10;" d="M 119.914062 170.621094 L 139.527344 175.253906 "/>
<path style="fill:none;stroke-width:1;stroke-linecap:butt;stroke-linejoin:miter;stroke:rgb(0%,0%,0%);stroke-opacity:1;stroke-miterlimit:10;" d="M 160.617188 151.734375 L 160.617188 151.734375 M 158.210938 153.523438 L 158.96875 154.242188 M 155.804688 155.316406 L 157.324219 156.75 M 153.398438 157.109375 L 155.675781 159.257812 M 150.992188 158.902344 L 154.03125 161.765625 M 148.589844 160.695312 L 152.382812 164.273438 M 146.183594 162.488281 L 150.738281 166.777344 M 143.777344 164.28125 L 149.089844 169.285156 M 141.371094 166.074219 L 147.441406 171.792969 M 140.105469 167.019531 L 146.578125 173.113281 "/>
<path style="fill:none;stroke-width:1.2;stroke-linecap:butt;stroke-linejoin:miter;stroke:rgb(0%,0%,0%);stroke-opacity:1;stroke-miterlimit:10;" d="M 160.617188 151.734375 L 153.375 127.605469 "/>
<path style="fill:none;stroke-width:1.2;stroke-linecap:butt;stroke-linejoin:miter;stroke:rgb(0%,0%,0%);stroke-opacity:1;stroke-miterlimit:10;" d="M 160.617188 151.734375 L 172.871094 154.628906 "/>
<path style="fill:none;stroke-width:1.2;stroke-linecap:butt;stroke-linejoin:miter;stroke:rgb(0%,0%,100%);stroke-opacity:1;stroke-miterlimit:10;" d="M 172.871094 154.628906 L 185.128906 157.527344 "/>
<path style="fill:none;stroke-width:1.2;stroke-linecap:butt;stroke-linejoin:miter;stroke:rgb(0%,0%,0%);stroke-opacity:1;stroke-miterlimit:10;" d="M 153.375 127.605469 L 170.648438 109.273438 "/>
<path style="fill:none;stroke-width:1.2;stroke-linecap:butt;stroke-linejoin:miter;stroke:rgb(0%,0%,0%);stroke-opacity:1;stroke-miterlimit:10;" d="M 150.789062 121.707031 L 164.609375 107.042969 "/>
<path style="fill:none;stroke-width:1.2;stroke-linecap:butt;stroke-linejoin:miter;stroke:rgb(0%,0%,0%);stroke-opacity:1;stroke-miterlimit:10;" d="M 128.859375 121.8125 L 153.375 127.605469 "/>
<path style="fill:none;stroke-width:1.2;stroke-linecap:butt;stroke-linejoin:miter;stroke:rgb(0%,0%,0%);stroke-opacity:1;stroke-miterlimit:10;" d="M 170.648438 109.273438 L 163.410156 85.144531 "/>
<path style="fill:none;stroke-width:1.2;stroke-linecap:butt;stroke-linejoin:miter;stroke:rgb(0%,0%,0%);stroke-opacity:1;stroke-miterlimit:10;" d="M 163.410156 85.144531 L 138.894531 79.351562 "/>
<path style="fill:none;stroke-width:1.2;stroke-linecap:butt;stroke-linejoin:miter;stroke:rgb(0%,0%,0%);stroke-opacity:1;stroke-miterlimit:10;" d="M 159.59375 90.335938 L 139.984375 85.699219 "/>
<path style="fill:none;stroke-width:1.2;stroke-linecap:butt;stroke-linejoin:miter;stroke:rgb(0%,0%,0%);stroke-opacity:1;stroke-miterlimit:10;" d="M 138.894531 79.351562 L 121.621094 97.6875 "/>
<path style="fill:none;stroke-width:1.2;stroke-linecap:butt;stroke-linejoin:miter;stroke:rgb(0%,0%,0%);stroke-opacity:1;stroke-miterlimit:10;" d="M 121.621094 97.6875 L 128.859375 121.8125 "/>
<path style="fill:none;stroke-width:1.2;stroke-linecap:butt;stroke-linejoin:miter;stroke:rgb(0%,0%,0%);stroke-opacity:1;stroke-miterlimit:10;" d="M 128.023438 98.394531 L 133.8125 117.695312 "/>
<path style="fill:none;stroke-width:1.2;stroke-linecap:butt;stroke-linejoin:miter;stroke:rgb(0%,0%,0%);stroke-opacity:1;stroke-miterlimit:10;" d="M 128.859375 121.8125 L 120.222656 130.980469 "/>
<path style="fill:none;stroke-width:1.2;stroke-linecap:butt;stroke-linejoin:miter;stroke:rgb(100%,0%,0%);stroke-opacity:1;stroke-miterlimit:10;" d="M 120.222656 130.980469 L 111.585938 140.148438 "/>
<path style="fill:none;stroke-width:1.2;stroke-linecap:butt;stroke-linejoin:miter;stroke:rgb(100%,0%,0%);stroke-opacity:1;stroke-miterlimit:10;" d="M 111.585938 140.148438 L 99.328125 137.25 "/>
<path style="fill:none;stroke-width:1.2;stroke-linecap:butt;stroke-linejoin:miter;stroke:rgb(0%,0%,0%);stroke-opacity:1;stroke-miterlimit:10;" d="M 99.328125 137.25 L 87.074219 134.351562 "/>
<path style=" stroke:none;fill-rule:nonzero;fill:rgb(100%,100%,100%);fill-opacity:1;" d="M 107.585938 134.648438 L 115.585938 134.648438 L 115.585938 145.648438 L 107.585938 145.648438 Z M 107.585938 134.648438 "/>
<g style="fill:rgb(100%,0%,0%);fill-opacity:1;">
  <use xlink:href="#glyph0-1" x="107.585938" y="143.311523"/>
</g>
<path style="fill:none;stroke-width:1.2;stroke-linecap:butt;stroke-linejoin:miter;stroke:rgb(0%,0%,100%);stroke-opacity:1;stroke-miterlimit:10;" d="M 185.128906 157.527344 L 188.75 169.589844 "/>
<path style="fill:none;stroke-width:1.2;stroke-linecap:butt;stroke-linejoin:miter;stroke:rgb(100%,50%,0%);stroke-opacity:1;stroke-miterlimit:10;" d="M 188.75 169.589844 L 192.371094 181.652344 "/>
<path style=" stroke:none;fill-rule:nonzero;fill:rgb(100%,100%,100%);fill-opacity:1;" d="M 178.128906 152.027344 L 192.128906 152.027344 L 192.128906 163.027344 L 178.128906 163.027344 Z M 178.128906 152.027344 "/>
<g style="fill:rgb(0%,0%,100%);fill-opacity:1;">
  <use xlink:href="#glyph0-2" x="178.128906" y="160.69043"/>
  <use xlink:href="#glyph0-3" x="185.106445" y="160.69043"/>
</g>
<path style="fill:none;stroke-width:1.2;stroke-linecap:butt;stroke-linejoin:miter;stroke:rgb(100%,50%,0%);stroke-opacity:1;stroke-miterlimit:10;" d="M 189.53125 182.503906 L 193.152344 194.566406 "/>
<path style="fill:none;stroke-width:1.2;stroke-linecap:butt;stroke-linejoin:miter;stroke:rgb(100%,0%,0%);stroke-opacity:1;stroke-miterlimit:10;" d="M 193.152344 194.566406 L 196.773438 206.628906 "/>
<path style="fill:none;stroke-width:1.2;stroke-linecap:butt;stroke-linejoin:miter;stroke:rgb(100%,50%,0%);stroke-opacity:1;stroke-miterlimit:10;" d="M 195.207031 180.800781 L 198.828125 192.863281 "/>
<path style="fill:none;stroke-width:1.2;stroke-linecap:butt;stroke-linejoin:miter;stroke:rgb(100%,0%,0%);stroke-opacity:1;stroke-miterlimit:10;" d="M 198.828125 192.863281 L 202.449219 204.925781 "/>
<path style="fill:none;stroke-width:1.2;stroke-linecap:butt;stroke-linejoin:miter;stroke:rgb(100%,50%,0%);stroke-opacity:1;stroke-miterlimit:10;" d="M 192.371094 181.652344 L 204.433594 178.03125 "/>
<path style="fill:none;stroke-width:1.2;stroke-linecap:butt;stroke-linejoin:miter;stroke:rgb(0%,0%,0%);stroke-opacity:1;stroke-miterlimit:10;" d="M 204.433594 178.03125 L 216.496094 174.414062 "/>
<path style="fill:none;stroke-width:1.2;stroke-linecap:butt;stroke-linejoin:miter;stroke:rgb(100%,50%,0%);stroke-opacity:1;stroke-miterlimit:10;" d="M 192.371094 181.652344 L 180.308594 185.273438 "/>
<path style="fill:none;stroke-width:1.2;stroke-linecap:butt;stroke-linejoin:miter;stroke:rgb(0%,0%,0%);stroke-opacity:1;stroke-miterlimit:10;" d="M 180.308594 185.273438 L 168.242188 188.894531 "/>
<path style=" stroke:none;fill-rule:nonzero;fill:rgb(100%,100%,100%);fill-opacity:1;" d="M 189.371094 176.152344 L 195.371094 176.152344 L 195.371094 187.152344 L 189.371094 187.152344 Z M 189.371094 176.152344 "/>
<g style="fill:rgb(100%,50%,0%);fill-opacity:1;">
  <use xlink:href="#glyph0-4" x="189.371094" y="184.81543"/>
</g>
<path style=" stroke:none;fill-rule:nonzero;fill:rgb(100%,100%,100%);fill-opacity:1;" d="M 195.609375 200.277344 L 203.609375 200.277344 L 203.609375 211.277344 L 195.609375 211.277344 Z M 195.609375 200.277344 "/>
<g style="fill:rgb(100%,0%,0%);fill-opacity:1;">
  <use xlink:href="#glyph0-1" x="195.609375" y="208.94043"/>
</g>
<path style="fill:none;stroke-width:1.2;stroke-linecap:butt;stroke-linejoin:miter;stroke:rgb(0%,0%,0%);stroke-opacity:1;stroke-miterlimit:10;" d="M 216.496094 174.414062 L 222.289062 149.898438 "/>
<path style="fill:none;stroke-width:1.2;stroke-linecap:butt;stroke-linejoin:miter;stroke:rgb(0%,0%,0%);stroke-opacity:1;stroke-miterlimit:10;" d="M 222.84375 173.324219 L 227.480469 153.710938 "/>
<path style="fill:none;stroke-width:1.2;stroke-linecap:butt;stroke-linejoin:miter;stroke:rgb(0%,0%,0%);stroke-opacity:1;stroke-miterlimit:10;" d="M 234.832031 191.6875 L 216.496094 174.414062 "/>
<path style="fill:none;stroke-width:1.2;stroke-linecap:butt;stroke-linejoin:miter;stroke:rgb(0%,0%,0%);stroke-opacity:1;stroke-miterlimit:10;" d="M 222.289062 149.898438 L 246.417969 142.65625 "/>
<path style="fill:none;stroke-width:1.2;stroke-linecap:butt;stroke-linejoin:miter;stroke:rgb(0%,0%,0%);stroke-opacity:1;stroke-miterlimit:10;" d="M 246.417969 142.65625 L 264.75 159.933594 "/>
<path style="fill:none;stroke-width:1.2;stroke-linecap:butt;stroke-linejoin:miter;stroke:rgb(0%,0%,0%);stroke-opacity:1;stroke-miterlimit:10;" d="M 244.183594 148.699219 L 258.851562 162.519531 "/>
<path style="fill:none;stroke-width:1.2;stroke-linecap:butt;stroke-linejoin:miter;stroke:rgb(0%,0%,0%);stroke-opacity:1;stroke-miterlimit:10;" d="M 264.75 159.933594 L 258.957031 184.445312 "/>
<path style="fill:none;stroke-width:1.2;stroke-linecap:butt;stroke-linejoin:miter;stroke:rgb(0%,0%,0%);stroke-opacity:1;stroke-miterlimit:10;" d="M 258.957031 184.445312 L 234.832031 191.6875 "/>
<path style="fill:none;stroke-width:1.2;stroke-linecap:butt;stroke-linejoin:miter;stroke:rgb(0%,0%,0%);stroke-opacity:1;stroke-miterlimit:10;" d="M 254.839844 179.492188 L 235.539062 185.285156 "/>
<path style="fill:none;stroke-width:1.2;stroke-linecap:butt;stroke-linejoin:miter;stroke:rgb(0%,0%,0%);stroke-opacity:1;stroke-miterlimit:10;" d="M 168.242188 188.894531 L 162.449219 213.40625 "/>
<path style="fill:none;stroke-width:1.2;stroke-linecap:butt;stroke-linejoin:miter;stroke:rgb(0%,0%,0%);stroke-opacity:1;stroke-miterlimit:10;" d="M 161.894531 189.980469 L 157.261719 209.59375 "/>
<path style="fill:none;stroke-width:1.2;stroke-linecap:butt;stroke-linejoin:miter;stroke:rgb(0%,0%,0%);stroke-opacity:1;stroke-miterlimit:10;" d="M 149.910156 171.617188 L 168.242188 188.894531 "/>
<path style="fill:none;stroke-width:1.2;stroke-linecap:butt;stroke-linejoin:miter;stroke:rgb(0%,0%,0%);stroke-opacity:1;stroke-miterlimit:10;" d="M 162.449219 213.40625 L 138.324219 220.648438 "/>
<path style="fill:none;stroke-width:1.2;stroke-linecap:butt;stroke-linejoin:miter;stroke:rgb(0%,0%,0%);stroke-opacity:1;stroke-miterlimit:10;" d="M 138.324219 220.648438 L 119.992188 203.371094 "/>
<path style="fill:none;stroke-width:1.2;stroke-linecap:butt;stroke-linejoin:miter;stroke:rgb(0%,0%,0%);stroke-opacity:1;stroke-miterlimit:10;" d="M 140.554688 214.605469 L 125.886719 200.785156 "/>
<path style="fill:none;stroke-width:1.2;stroke-linecap:butt;stroke-linejoin:miter;stroke:rgb(0%,0%,0%);stroke-opacity:1;stroke-miterlimit:10;" d="M 119.992188 203.371094 L 125.785156 178.859375 "/>
<path style="fill:none;stroke-width:1.2;stroke-linecap:butt;stroke-linejoin:miter;stroke:rgb(0%,0%,0%);stroke-opacity:1;stroke-miterlimit:10;" d="M 125.785156 178.859375 L 149.910156 171.617188 "/>
<path style="fill:none;stroke-width:1.2;stroke-linecap:butt;stroke-linejoin:miter;stroke:rgb(0%,0%,0%);stroke-opacity:1;stroke-miterlimit:10;" d="M 129.898438 183.8125 L 149.199219 178.019531 "/>
</g>
</svg>

<svg xmlns="http://www.w3.org/2000/svg" xmlns:xlink="http://www.w3.org/1999/xlink" width="300pt" height="300pt" viewBox="0 0 300 300"><defs><symbol overflow="visible"><path d="M.453 1.594v-7.938h4.5v7.938zm.5-.5h3.5v-6.938h-3.5zm0 0"/></symbol><symbol overflow="visible" id="a"><path d="M3.547-5.953c-.65 0-1.164.242-1.547.72-.375.48-.563 1.13-.563 1.952 0 .835.188 1.49.563 1.967.383.48.898.72 1.547.72.644 0 1.156-.24 1.53-.72.376-.476.564-1.132.564-1.968 0-.822-.187-1.474-.562-1.954-.375-.477-.887-.72-1.53-.72zm0-.734c.914 0 1.648.312 2.203.937.55.617.828 1.438.828 2.47 0 1.042-.277 1.87-.828 2.483-.555.617-1.29.922-2.203.922-.93 0-1.668-.305-2.22-.922C.774-1.41.5-2.237.5-3.28c0-1.033.273-1.853.828-2.47.55-.625 1.29-.938 2.22-.938zm0 0"/></symbol><symbol overflow="visible" id="b"><path d="M.89-6.563H2.08l2.906 5.485v-5.484h.86V0H4.656L1.75-5.484V0H.89zm0 0"/></symbol><symbol overflow="visible" id="c"><path d="M.89-6.563h.876v2.688H5v-2.688h.89V0H5v-3.125H1.766V0H.89zm0 0"/></symbol><symbol overflow="visible" id="d"><path d="M1.766-5.828v2.47H2.89c.407 0 .723-.11.954-.33.226-.218.344-.52.344-.906 0-.394-.118-.695-.344-.906-.23-.22-.547-.328-.953-.328zM.89-6.562h2c.727 0 1.282.167 1.657.5.383.335.578.824.578 1.468 0 .65-.195 1.137-.578 1.47-.375.323-.93.483-1.656.483H1.767V0H.89zm0 0"/></symbol></defs><g><path fill="#fff" d="M0 0h300v300H0z"/><path d="M35.25 189.355l24.516 5.793M59.766 195.148l17.273-18.335M77.04 176.813l24.515 5.792M101.555 182.605l17.273-18.332M118.828 164.273l24.512 5.793M119.914 170.62l19.613 4.634" stroke-width="1.2" stroke="#000" stroke-miterlimit="10" fill="none"/><path d="M160.617 151.734m-2.406 1.79l.76.718m-3.165 1.074l1.52 1.434m-3.927.36l2.278 2.148m-4.684-.356l3.04 2.864m-5.442-1.07l3.793 3.577m-6.2-1.785l4.555 4.29m-6.96-2.497l5.312 5.005m-7.72-3.21l6.07 5.718m-7.335-4.773l6.473 6.093" stroke="#000" stroke-miterlimit="10" fill="none"/><path d="M160.617 151.734l-7.242-24.13M160.617 151.734l12.254 2.895" stroke-width="1.2" stroke="#000" stroke-miterlimit="10" fill="none"/><path d="M172.87 154.63l12.26 2.897" stroke-width="1.2" stroke="#00f" stroke-miterlimit="10" fill="none"/><path d="M153.375 127.605l17.273-18.332M150.79 121.707l13.82-14.664M128.86 121.813l24.515 5.792M170.648 109.273l-7.238-24.128M163.41 85.145l-24.515-5.793M159.594 90.336l-19.61-4.637M138.895 79.352L121.62 97.687M121.62 97.688l7.24 24.124M128.023 98.395l5.79 19.3M128.86 121.813l-8.637 9.167" stroke-width="1.2" stroke="#000" stroke-miterlimit="10" fill="none"/><path d="M120.223 130.98l-8.637 9.168M111.586 140.148l-12.258-2.898" stroke-width="1.2" stroke="#f00" stroke-miterlimit="10" fill="none"/><path d="M99.328 137.25l-12.254-2.898" stroke-width="1.2" stroke="#000" stroke-miterlimit="10" fill="none"/><path d="M107.586 134.648h8v11h-8zm0 0" fill="#fff"/><use xlink:href="#a" x="107.586" y="143.312" fill="#f00"/><path d="M185.13 157.527l3.62 12.063" stroke-width="1.2" stroke="#00f" stroke-miterlimit="10" fill="none"/><path d="M188.75 169.59l3.62 12.062" stroke-width="1.2" stroke="#ff7f00" stroke-miterlimit="10" fill="none"/><path d="M178.13 152.027h14v11h-14zm0 0" fill="#fff"/><g fill="#00f"><use xlink:href="#b" x="178.129" y="160.69"/><use xlink:href="#c" x="185.106" y="160.69"/></g><path d="M189.53 182.504l3.622 12.062" stroke-width="1.2" stroke="#ff7f00" stroke-miterlimit="10" fill="none"/><path d="M193.152 194.566l3.62 12.063" stroke-width="1.2" stroke="#f00" stroke-miterlimit="10" fill="none"/><path d="M195.207 180.8l3.62 12.063" stroke-width="1.2" stroke="#ff7f00" stroke-miterlimit="10" fill="none"/><path d="M198.828 192.863l3.62 12.063" stroke-width="1.2" stroke="#f00" stroke-miterlimit="10" fill="none"/><path d="M192.37 181.652l12.064-3.62" stroke-width="1.2" stroke="#ff7f00" stroke-miterlimit="10" fill="none"/><path d="M204.434 178.03l12.062-3.616" stroke-width="1.2" stroke="#000" stroke-miterlimit="10" fill="none"/><path d="M192.37 181.652l-12.06 3.62" stroke-width="1.2" stroke="#ff7f00" stroke-miterlimit="10" fill="none"/><path d="M180.31 185.273l-12.068 3.622" stroke-width="1.2" stroke="#000" stroke-miterlimit="10" fill="none"/><path d="M189.37 176.152h6v11h-6zm0 0" fill="#fff"/><use xlink:href="#d" x="189.371" y="184.815" fill="#ff7f00"/><path d="M195.61 200.277h8v11h-8zm0 0" fill="#fff"/><use xlink:href="#a" x="195.609" y="208.94" fill="#f00"/><path d="M216.496 174.414l5.793-24.516M222.844 173.324l4.636-19.613M234.832 191.688l-18.336-17.274M222.29 149.898l24.128-7.242M246.418 142.656l18.332 17.278M244.184 148.7l14.668 13.82M264.75 159.934l-5.793 24.51M258.957 184.445l-24.125 7.243M254.84 179.492l-19.3 5.793M168.242 188.895l-5.793 24.51M161.895 189.98l-4.633 19.614M149.91 171.617l18.332 17.278M162.45 213.406l-24.126 7.242M138.324 220.648l-18.332-17.277M140.555 214.605l-14.668-13.82M119.992 203.37l5.793-24.51M125.785 178.86l24.125-7.243M129.898 183.813l19.3-5.793" stroke-width="1.2" stroke="#000" stroke-miterlimit="10" fill="none"/></g></svg>
